!!!COM:	Bach, Johann Sebastian
!!!CDT:	1685/02/21/-1750/07/28/
!!!OTL@@DE:	Allein zu dir, Herr Jesu Christ
!!!SCT:	BWV 261
!!!PC#:	359
!!!AGN:	chorale
**kern	**kern	**kern	**kern
*ICvox	*ICvox	*ICvox	*ICvox
*Ibass	*Itenor	*Ialto	*Isoprn
*I"Bass	*I"Tenor	*I"Alto	*I"Soprano
*>[A,A,B]	*>[A,A,B]	*>[A,A,B]	*>[A,A,B]
*>norep[A,B]	*>norep[A,B]	*>norep[A,B]	*>norep[A,B]
*>A	*>A	*>A	*>A
*clefF4	*clefGv2	*clefG2	*clefG2
*k[f#c#]	*k[f#c#]	*k[f#c#]	*k[f#c#]
*b:	*b:	*b:	*b:
*M4/4	*M4/4	*M4/4	*M4/4
*met(c)	*met(c)	*met(c)	*met(c)
*MM100	*MM100	*MM100	*MM100
8DL	4A	8f#L	4dd
8EJ	.	8gJ	.
=1	=1	=1	=1
4F#	4d	4a	4a
4G	4d	4g	8bL
.	.	.	8cc#J
4.F#	4d	4a	8ddL
.	.	.	8eeJ
.	4d	8a#L	4ff#
8G#	.	8bJ	.
=2	=2	=2	=2
4A#	4c#	4cc#	4ee
8BL	8dL	4f#	2dd
8AJ	8c#J	.	.
4G#	4B	4e	.
4A	4A	4e	4cc#
=3	=3	=3	=3
2D;	2A;	2f#;	2dd;
4r	4ry	4ry	4r
4d	4d	4a	4ff#
=4	=4	=4	=4
4A	4c#	8aL	4ee
.	.	8gJ	.
4B	4d	4f#	4dd
4E	8eL	4g	8cc#L
.	8dJ	.	8bJ
[4F#	4c#	4f#	4a
=5	=5	=5	=5
4F#]	4d	2.g	4b
8EL	4e	.	8cc#L
8DJ	.	.	8ddJ
8C#L	8A#L	.	[2ee
8BBJ	8BJ	.	.
8AA#L	[4c#	8f#L	.
8C#J	.	8g#J	.
=6	=6	=6	=6
4F#	4c#]	4a#	4ee]
8GL	2B	8bL	4dd
8F#J	.	8aJ	.
4E	.	4g	2cc#
4F#	4A#	8f#L	.
.	.	8eJ	.
=7	=7	=7	=7
2BB;	2B;	2d;	2b;
4r	4ry	4ry	4r
=:|!	=:|!	=:|!	=:|!
*>B	*>B	*>B	*>B
4B	4d	4b	4ff#
=8	=8	=8	=8
4E	8dL	4b	4gg
.	8BJ	.	.
4A	4c#	4a	4ee
4D	8c#L	4a	4ff#
.	8AJ	.	.
8GL	4B	4g	4dd
8F#J	.	.	.
=9	=9	=9	=9
4E	4B	4g	4ee
4AA#	4c#	4f#	4ff#
4BB;	4d;	4f#;	4b;
4d	4f#	4b	4ff#
=10	=10	=10	=10
4d	4e	4b	4gg
4c#	4e	4a	4ee
4c#	4d	4a	4ff#
8BL	8dL	8gL	4dd
8AJ	8c#J	8f#J	.
=11	=11	=11	=11
8GL	4B	4e	4ee
8F#J	.	.	.
8EL	4B	4a	4ff#
8D#J	.	.	.
2E;	2B;	2g;	2b;
=12	=12	=12	=12
4r	4ry	4ry	4r
4BB	4B	4f#	4dd
4C#	8B	4e#	4cc#
.	4A	.	.
8D#L	.	8f#L	4b
8E#J	8G#	8g#J	.
=13	=13	=13	=13
4F#	4F#	4c#	4a
4D#	4F#	4f#	4b
8EnXL	8GnXL	4f#	4g
8F#J	8AJ	.	.
8GL	8BL	4e	4g
8AJ	8c#J	.	.
=14	=14	=14	=14
4B;	4d#;	4d#;	4f#;
2r	2ry	2ry	2r
[4G	8BL	[4e	4b
.	16c#L	.	.
.	16dJJ	.	.
=15	=15	=15	=15
4G]	4c#	4e]	4a
8F#L	8dL	2a	2dd
8GJ	8eJ	.	.
4A	4f#	.	.
4AA	4e	4g	4cc#
=16	=16	=16	=16
4D;	4d;	4f#;	4dd;
2r	2ry	2ry	2r
4D	4d	4f#	4a
=17	=17	=17	=17
4d	4G#	4e	4b
4c#	4A#	4e	4cc#
4.B	8BL	4d	8ddL
.	8c#J	.	8eeJ
.	[4d	8ddL	[4ff#
8A	.	8cc#J	.
=18	=18	=18	=18
8GnXL	4d]	8bL	4ff#]
8F#J	.	8a#J	.
8GL	2c#	8bL	4ee
8EJ	.	8cc#J	.
4F#	.	4a#	4ee
8GL	[4B	8bL	4dd
8F#J	.	8aJ	.
=19	=19	=19	=19
4E	4B]	4g	4cc#
4F#	4A#	8f#L	4cc#
.	.	8eJ	.
2BB;	2B;	2d#;	2b;
==	==	==	==
*-	*-	*-	*-
!!!hum2abc: -Q ''
!!!title: @{PC#}. @{OTL@@DE}
!!!YOR1: 371 vierstimmige Choralges&auml;nge von Johann Sebastian Bach, 
!!!YOR2: 4th ed. by Alfred D&ouml;rffel (Leipzig: Breitkopf und H&auml;rtel, 
!!!YOR2: c.1875). 178 pp. Plate "V.A.10".  reprint: J.S. Bach, 371 Four-Part 
!!!YOR4: Chorales (New York: Associated Music Publishers, Inc., c.1940).
!!!SMS: B&H, 4th ed, Alfred D&ouml;rffel, c.1875, plate V.A.10
!!!EED:  Craig Stuart Sapp
!!!EEV:  2009/05/22
